img/svg/16/net/novarra.svg

<svg xmlns="http://www.w3.org/2000/svg" viewBox="0 0 16 16" enable-background="new 0 0 16 16"><path d="M12.5 1h-9c-1.381 0-2.5 1.119-2.5 2.5v9c0 1.381 1.119 2.5 2.5 2.5h9c1.381 0 2.5-1.119 2.5-2.5v-9c0-1.381-1.119-2.5-2.5-2.5zm-2.5 12h-4l-3-10h3l2 7 .571-2h2.929l-1.5 5zm1.8-6h-2.943l.286-1h2.957l-.3 1zm.6-2h-2.971l.571-2h3l-.6 2z" fill="#ccc"/></svg>

<svg xmlns="http://www.w3.org/2000/svg" viewBox="0 0 16 16"><path fill="#ccc" d="M12.5 1h-9A2.5 2.5 0 0 0 1 3.5v9A2.5 2.5 0 0 0 3.5 15h9a2.5 2.5 0 0 0 2.5-2.5v-9A2.5 2.5 0 0 0 12.5 1zM10 13H6L3 3h3l2 7 .571-2H11.5L10 13zm1.8-6H8.857l.286-1H12.1l-.3 1zm.6-2H9.429L10 3h3l-.6 2z"/></svg>
